icon-themes/breeze_svg/cmd/lc_break.svg

<svg viewBox="0 0 24 24" xmlns="http://www.w3.org/2000/svg"><path d="m18 4-14 4 6.21875 10.71875.1875.28125.5625 1h1.1875l-.5625-1-.1875-.28125-5.875-10.09375 11.0625-3.1875-1.5625 6.3125-.09375.375.15625.3125 1.78125 3.5625 1.5 3 .5 1h1.125l-.5-1-1.5-3-2-4z" fill="#4d4d4d"/></svg>

<svg viewBox="0 0 24 24" xmlns="http://www.w3.org/2000/svg">
  <path
     style="fill:#4d4d4d"
     d="M 18 4 L 4 8 L 10.21875 18.71875 L 10.40625 19 L 10.96875 20 L 12.15625 20 L 11.59375 19 L 11.40625 18.71875 L 5.53125 8.625 L 16.59375 5.4375 L 15.03125 11.75 L 14.9375 12.125 L 15.09375 12.4375 L 16.875 16 L 18.375 19 L 18.875 20 L 20 20 L 19.5 19 L 18 16 L 16 12 L 18 4 z " />
</svg>
